images/usernames_40_color.svg

<svg width="40" height="40" viewBox="0 0 40 40" fill="none" xmlns="http://www.w3.org/2000/svg">
<path d="M40 20C40 8.9543 31.0457 0 20 0C8.9543 0 0 8.9543 0 20C0 31.0457 8.9543 40 20 40C31.0457 40 40 31.0457 40 20Z" fill="#ADB4F1" style="fill:#ADB4F1;fill:color(display-p3 0.6765 0.7053 0.9461);fill-opacity:1;"/>
<path fill-rule="evenodd" clip-rule="evenodd" d="M20 38.3333C9.87478 38.3333 1.66667 30.1252 1.66667 20C1.66667 9.87478 9.87478 1.66667 20 1.66667C30.1252 1.66667 38.3333 9.87478 38.3333 20C38.3333 30.1252 30.1252 38.3333 20 38.3333ZM20 40C31.0457 40 40 31.0457 40 20C40 8.9543 31.0457 0 20 0C8.9543 0 0 8.9543 0 20C0 31.0457 8.9543 40 20 40Z" fill="#6A73C0" style="fill:#6A73C0;fill:color(display-p3 0.4162 0.4523 0.7544);fill-opacity:1;"/>
<path fill-rule="evenodd" clip-rule="evenodd" d="M10 20C10 14.4772 14.4772 10 20 10C25.5228 10 30 14.4772 30 20C30 21.5325 29.6779 22.5276 29.2669 23.1078C28.8857 23.646 28.3909 23.8889 27.7778 23.8889C27.0484 23.8889 26.1111 23.0873 26.1111 21.9445V20C26.1111 16.625 23.3751 13.8889 20 13.8889C16.6249 13.8889 13.8889 16.625 13.8889 20C13.8889 23.3751 16.6249 26.1111 20 26.1111C21.7807 26.1111 23.3835 25.3495 24.5005 24.1343C25.2015 25.3056 26.4289 26.1111 27.7778 26.1111C29.1091 26.1111 30.281 25.5208 31.0803 24.3923C31.8499 23.3058 32.2222 21.8009 32.2222 20C32.2222 13.2499 26.7501 7.77781 20 7.77781C13.2499 7.77781 7.77778 13.2499 7.77778 20C7.77778 26.7502 13.2499 32.2223 20 32.2223C22.2244 32.2223 24.3131 31.627 26.1119 30.5865C26.6431 30.2792 26.8246 29.5995 26.5173 29.0683C26.2101 28.5371 25.5304 28.3556 24.9992 28.6629C23.5295 29.5131 21.8233 30 20 30C14.4772 30 10 25.5229 10 20ZM23.8889 20C23.8889 22.1478 22.1478 23.8889 20 23.8889C17.8522 23.8889 16.1111 22.1478 16.1111 20C16.1111 17.8523 17.8522 16.1111 20 16.1111C22.1478 16.1111 23.8889 17.8523 23.8889 20Z" fill="white" style="fill:white;fill-opacity:1;"/>
</svg>

<svg xmlns="http://www.w3.org/2000/svg" width="40" height="40" fill="none"><path fill="#ADB4F1" d="M40 20C40 8.954 31.046 0 20 0S0 8.954 0 20s8.954 20 20 20 20-8.954 20-20" style="fill:#adb4f1;fill:color(display-p3 .6765 .7053 .9461);fill-opacity:1"/><path fill="#6A73C0" fill-rule="evenodd" d="M20 38.333C9.875 38.333 1.667 30.125 1.667 20S9.875 1.667 20 1.667 38.333 9.875 38.333 20 30.125 38.333 20 38.333M20 40c11.046 0 20-8.954 20-20S31.046 0 20 0 0 8.954 0 20s8.954 20 20 20" clip-rule="evenodd" style="fill:#6a73c0;fill:color(display-p3 .4162 .4523 .7544);fill-opacity:1"/><path fill="#fff" fill-rule="evenodd" d="M10 20c0-5.523 4.477-10 10-10s10 4.477 10 10c0 1.532-.322 2.528-.733 3.108-.381.538-.876.78-1.49.78-.729 0-1.666-.8-1.666-1.944V20a6.111 6.111 0 1 0-1.61 4.134c.7 1.172 1.928 1.977 3.277 1.977 1.331 0 2.503-.59 3.302-1.719.77-1.086 1.142-2.591 1.142-4.392 0-6.75-5.472-12.222-12.222-12.222S7.778 13.25 7.778 20 13.25 32.222 20 32.222c2.224 0 4.313-.595 6.112-1.636a1.111 1.111 0 0 0-1.113-1.923A9.95 9.95 0 0 1 20 30c-5.523 0-10-4.477-10-10m13.889 0a3.889 3.889 0 1 1-7.778 0 3.889 3.889 0 0 1 7.778 0" clip-rule="evenodd" style="fill:#fff;fill-opacity:1"/></svg>
